app/dist/common/images/cyngn.svg

<svg height="18" viewBox="0 0 18 18" width="18" xmlns="http://www.w3.org/2000/svg"><path d="m0 0h18v18h-18z" fill="#f0f3fa"/><path d="m8.83 3.5v2.4h-4.5z" fill="#1e817e"/><path d="m8.63 9.1a522 522 0 0 0 -2.15 1.24l-2.24-3.76zm.2 5.28v-5.04l-2.25 1.26 2.25 3.77z" fill="#3ac0be"/><path d="m6.33 10.75-2.2 1.26 4.4 2.49zm-2.33.98v-4.95l2.2 3.71zm5.17-8.23v2.4h4.5z" fill="#1e817e"/><path d="m8.83 6.25v2.58l-4.4-2.58zm.34 0v2.58l4.4-2.58z" fill="#7dd1e1"/><path d="m9.37 9.1c.71.4 2.14 1.22 2.15 1.24l2.24-3.76zm-.2 5.28v-5.04l2.24 1.27z" fill="#3ac0be"/><path d="m11.67 10.75 2.2 1.26-4.4 2.49zm2.33.98v-4.95l-2.2 3.71z" fill="#1e817e"/></svg>

<!-- by TradingView --><svg xmlns="http://www.w3.org/2000/svg" width="18" height="18" viewBox="0 0 18 18"><path fill="#F0F3FA" d="M0 0h18v18H0z"/><path d="M8.83 3.5v2.4h-4.5l4.5-2.4z" fill="#1E817E"/><path d="M8.63 9.1a522 522 0 0 0-2.15 1.24L4.24 6.58 8.63 9.1zM8.83 14.38V9.34L6.58 10.6l2.25 3.77z" fill="#3AC0BE"/><path d="M6.33 10.75l-2.2 1.26 4.4 2.49-2.2-3.75zM4 11.73V6.78l2.2 3.71L4 11.73zM9.17 3.5v2.4h4.5l-4.5-2.4z" fill="#1E817E"/><path d="M8.83 6.25v2.58l-4.4-2.58h4.4zm.34 0v2.58l4.4-2.58h-4.4z" fill="#7DD1E1"/><path d="M9.37 9.1c.71.4 2.14 1.22 2.15 1.24l2.24-3.76L9.37 9.1zM9.17 14.38V9.34l2.24 1.27-2.24 3.77z" fill="#3AC0BE"/><path d="M11.67 10.75l2.2 1.26-4.4 2.49 2.2-3.75zM14 11.73V6.78l-2.2 3.71 2.2 1.24z" fill="#1E817E"/></svg>
